X: 2
T: Munster Buttermilk
R: jig
M: 6/8
L: 1/8
K: Dmaj
dcd edB | A2 F FEF | A2 F FEF | AFE DFA |dcd edB | A2 F FEF | AFE DEF | EFE D2 :|A2 B d2 e | ~f3 fed | ~e3 edB | ~d3 edB |A2 B d2 e | ~f3 fed | edB ABd | efe d2 :|


Tune 1077	Setting 1077

